packages/assets/static/images/icons/restore.svg

<svg width="24" height="24" viewBox="0 0 24 24" xmlns="http://www.w3.org/2000/svg">
<path d="M8.25 9.75004H3.75C3.55109 9.75004 3.36032 9.67102 3.21967 9.53037C3.07902 9.38972 3 9.19895 3 9.00004V4.50004C3 4.30113 3.07902 4.11036 3.21967 3.96971C3.36032 3.82906 3.55109 3.75004 3.75 3.75004C3.94891 3.75004 4.13968 3.82906 4.28033 3.96971C4.42098 4.11036 4.5 4.30113 4.5 4.50004V7.18973L5.87156 5.81816C7.54426 4.13705 9.816 3.18883 12.1875 3.18191H12.2372C14.5885 3.17586 16.8476 4.09639 18.525 5.7441C18.662 5.88422 18.7387 6.07238 18.7387 6.26832C18.7387 6.46426 18.662 6.65242 18.5251 6.79256C18.3881 6.93269 18.2018 7.01367 18.0059 7.01816C17.81 7.02266 17.6201 6.95031 17.4769 6.8166C16.0787 5.44417 14.1964 4.67732 12.2372 4.68191H12.195C10.2189 4.688 8.32601 5.478 6.93188 6.87848L5.56031 8.25004H8.25C8.44891 8.25004 8.63968 8.32906 8.78033 8.46971C8.92098 8.61036 9 8.80113 9 9.00004C9 9.19895 8.92098 9.38972 8.78033 9.53037C8.63968 9.67102 8.44891 9.75004 8.25 9.75004ZM20.25 14.25H15.75C15.5511 14.25 15.3603 14.3291 15.2197 14.4697C15.079 14.6104 15 14.8011 15 15C15 15.199 15.079 15.3897 15.2197 15.5304C15.3603 15.671 15.5511 15.75 15.75 15.75H18.4397L17.0681 17.1216C15.6742 18.5218 13.7817 19.3118 11.8059 19.3182H11.7638C9.80454 19.3228 7.92227 18.5559 6.52406 17.1835C6.45421 17.112 6.37077 17.0552 6.27866 17.0165C6.18655 16.9777 6.08762 16.9577 5.98769 16.9577C5.88775 16.9577 5.78883 16.9777 5.69672 17.0165C5.60461 17.0553 5.52119 17.1121 5.45134 17.1835C5.38149 17.255 5.32663 17.3397 5.28998 17.4327C5.25333 17.5257 5.23563 17.625 5.23793 17.7249C5.24022 17.8248 5.26245 17.9233 5.30333 18.0145C5.3442 18.1057 5.40289 18.1878 5.47594 18.256C7.15338 19.9037 9.41242 20.8242 11.7638 20.8182H11.8125C14.1837 20.811 16.455 19.8628 18.1275 18.1819L19.5 16.8104V19.5C19.5 19.699 19.579 19.8897 19.7197 20.0304C19.8603 20.171 20.0511 20.25 20.25 20.25C20.4489 20.25 20.6397 20.171 20.7803 20.0304C20.921 19.8897 21 19.699 21 19.5V15C21 14.8011 20.921 14.6104 20.7803 14.4697C20.6397 14.3291 20.4489 14.25 20.25 14.25Z"/>
</svg>

<svg viewBox="0 0 24 24" xmlns="http://www.w3.org/2000/svg" aria-hidden="true" fill="currentColor"><path d="M8.25 9.75h-4.5A.75.75 0 0 1 3 9V4.5a.75.75 0 0 1 1.5 0v2.69l1.372-1.372a8.95 8.95 0 0 1 6.316-2.636h.05a8.94 8.94 0 0 1 6.287 2.562.75.75 0 0 1-1.048 1.073 7.46 7.46 0 0 0-5.24-2.135h-.042a7.46 7.46 0 0 0-5.263 2.196L5.56 8.25h2.69a.75.75 0 0 1 0 1.5m12 4.5h-4.5a.75.75 0 0 0 0 1.5h2.69l-1.372 1.372a7.46 7.46 0 0 1-5.262 2.196h-.042a7.46 7.46 0 0 1-5.24-2.135.748.748 0 0 0-1.234.25.75.75 0 0 0 .186.823 8.94 8.94 0 0 0 6.288 2.562h.049a8.95 8.95 0 0 0 6.315-2.636L19.5 16.81v2.69a.75.75 0 1 0 1.5 0V15a.75.75 0 0 0-.75-.75"/></svg>
